t100l16>ed+ed+ec-dc<a8rceab8reg+bb+8re>ed+ed+ec-dc<a8rceab8rdb+ba8rb>cde8.<g>fed8.<f>edc8.<e>dc<br8r>er8r>er8<d+er8d+ed+ed+ec-dc<a8rceab8reg+bb+8re>ed+ed+ec-dc<a8rceab8rdb+ba8,
r2l16<<a>ear8&r16<e>eg+r8&r16<a>ear2r<a>ear8&r16<e>eg+r8&r16<a>ear8&r16cgb+r8&r16<g>gbr8&r16<a>ear8&r16<e>e>eere>eerd+er8d+er2r<<<a>ear8&r16<e>eg+r8&r16<a>ear2r<a>ear8&r16<e>eg+r8&r16<a8
