v120o5r1r1r1r4r8l32cdd+fg4&g16.rc4&c16.rd+16f16g8.&grc8.&crl16d+fd2&d8.r2r4rf4&f.r32<a+4&a+.r32>d+df8.&f32r32<a+4&a+.r32>d+dc2&cr2r8r16l32cdd+fg4&g16.rc4&c16.rd+16f16g8.&grc8.&crl16d+fd2&d8.r2r4rf4&f.r32<a+4&a+.r32>d+df8.&f32r32<a+4&a+.r32>d+dc4.&cr2r4r8r16>d+4&d+.r32<g4&g.r32>cdd+8.l32&d+r<g8.&grl16>cd<a+4.&a+r8r16l32dd+dcd8g8&grl16aa+8>c8d8d4&d.r32<f4&f.r32b+a+>d8.&d32r32<f4&f.r32b+a+g+2&g+r2r4r>d+4&d+.r32<g4&g.r32>cdd+8.l32&d+r<g8.&grl16>cd<a+4.&a+r8r16a8g4.&gr8r16a+>d+d4&d.r32<f4&f.l32ra+8.&a+rb+8a+8.&a+rf8g4.&l16gr1rb+8d+8g+a+b+8d+8g+b+a+8d+8gg+a+d+8g8a+g+8c8fgg+8c8fg+g8>c8d+fg8c8d+f<g+8.&g+32r32>cdd+8<g+8>dd+d+4&d+.r32f4&f.r32g4.&gr1rc8<d+8g+a+b+8d+8g+b+a+8d+8gg+a+8d+8ga+g+8c8fgg+8c8fg+g8>c8d+fg8c8d+f<g+8.&g+32r32>cdd+8<g+8>dd+d+8.&d+32r16r32ff8f8&f32r32fc8<<g8g+a+b+8g8g+a+b+8g8g+a+1&a+8r>>b+8g8g+a+b+8g8g+a+b+8g8g+a+1&a+8,
v127o5r2l8<g<cl16>efg8c8efc8<c8>efg8c8efc8<c8>efg8c8efc8<c8>efg8c8efc8<c8>d+fg8c8d+fc8<c8>d+fg8c8d+f<g8<g8>a+>cd8<g8a+b+g8<g8>a+>cd8<g8a+b+a+8<a+8>>dd+f8<a+8>dd+<a+8<a+8>>dd+f8<a+8>dd+<f8<f8>g+a+b+8f8g+a+b+8<f8>g+a+b+8f8g+a+b+8c8>d+fg8c8d+fc8<c8>d+fg8c8d+f<g8<g8>a+>cd8<g8a+b+g8<g8>a+>cd8<g8a+b+a+8<a+8>>dd+f8<a+8>dd+<a+8<a+8>>dd+f8<a+8>dd+c8<<f8>g+a+b+8f8g+a+b+8<f8>g+a+b+8f8g+a+b+8c8>d+fg8c8d+fc8<c8>d+fg8c8d+f<g8<g8>a+>cd8<g8a+b+g8<g8>a+>cd8<g8a+b+a+8<a+8>>dd+f8<a+8>dd+<a+8<a+8>>dd+f8<a+8>dd+c8<<f8>g+a+b+8f8g+a+b+8<f8>g+a+b+8f8g+a+b+8c8>d+fg8c8d+fc8<c8>d+fg8c8d+f<g8<g8>a+>cd8<g8a+b+g8<g8>a+>cd8<g8a+b+a+8<a+8>>dd+f8<a+8>dd+<a+8<a+8>>dd+f8<a+8>dd+c8<<f8>g+a+b+8f8g+a+b+8<f8>g+a+b+8f8g+a+<g+4&g+.l32r>>d+8.&d+r<<g+8d+4&d+16.r>a+8.&a+r<d+8f4&f16.r>>c8.&cr<<f8c4&c16.r>>g8.&gr<<c8g+4&g+16.r>>d+8.&d+r<<g+8l16>d+a+>d+fga+<f>cfgg+b+c8<c8>d+fg8c8d+fc8<c8>d+fg8c8d+f<<g+4&g+.l32r>>d+8.&d+r<<g+8d+4&d+16.r>a+8.&a+r<d+8f4&f16.r>>c8.&cr<<f8c4&c16.r>>g8.&gr<<c8g+4&g+16.r>>d+8.&d+r<<g+8g+8&g+r>>d+8&d+r<<g8&gr>>d8&drl8<<c>gl16>d+fg8c8d+fg8c8d+f1&f8r<<c1