t110l16b>c+e8.ee8c-c+c+<bgg+e8b>c+e8.ee8c-c+c+<bgg+e8ef+f+8.e8f+ec+f+ec+f+ec+b>c+e8.ee8c-c+c+<bgg+e8f+g+b8.bb8f+g+f+ec+f+ec+ff+e8.ee8c+c-c+<bgg+e8,
r8<e8r8<b8r8>e8r8<b16r16>c+16r16e8r8<b8r8>e8r8e16r16f+16r16a8r8e8r8<a8r8a16r16>c+16r16e8r8<b8r8>e8r8<b16r16>e16r16<b8r8>f+8r8<a8r8>e16r16<b16r16>e8r8<b8r8>e8<b8e8
