t167l16g1&g2<e2f+2g1&g2r8>>crcr4rcrcrcr8.crcr8.cr8.cr4rcrcr8.<c4.e4f+4a8g4.e4c4<a8>f+8f+8f+8g4.r4.c8c8c8c8c4.d+2r8<a8a8a8r8>d+8d+8d+8d+8d+4d+8<ba+b>c+d+c+d+ff+ff+g+ag+ab>fd+c+<b>d+c+<ba>c+<bagbagf<b4.>d+4f4>d+8c+4.<b4a4f8<a8a8a8b8r8a8a8a8b>d+fabagd+agfc+gfd+<bg+2b1>c+4e4d+2<b4g+4e1>d8f+g+a+8g+f+e8f+g+a+8g+f+erg+8crg+8erg+8<ar>g+8c4.e4f+4a8g4.e4e4e8c8c8c8c4b8e8f+8g8f+8e8<b8>c4.e4f+4a8g4.e4c4>c8d+8c8d8c8r8<c+r8.c+rc+8c+r8.c+rd+8c+rg8c+ra8c+r>>c8<<c+r<b4.>d+4f4g+8f+4.d+4<b4g+8b8b8b8b4>c+4<b8b8>d8d+4f8f+8b8a1&a8r8a8b8b8>e8b8a8g8a8g8f+8e8a8g8f+8e8d8e8f+8d8e8.d+8e2&e8.<<a+8a+8r8a+8r8a+8r8a+8>d+2a+1>c4d+4<a+2g4d+4c+8c+8c+8c+8r8c+8c+8r8d+8fga8gfd+8fga8r8<d+8fga8gfd+8fga8r4>c+8r8c+8r8c+8r8c+8d+dd+fgfgaa+>cc+d+gfd+c<c+4.f4g4a+8g+4.f4c+4g8c+8c+8c+8c+8r8c+8c+8c+8r8c+8c+8c+8c+8g+4.c+8c+8c+8c+8,
>c1&c2<<g2b2>c1&c2r8>erer4rererer8.erer8.er8.er4rerer8.c4.e4f+4a8g4.e4c4<a8r1r8e8e8e8e8e4.f+2r8<b8b8b8r8>f8f8f8f8f4f8r1r1r1r1c+8c+8c+8d+8r8<b8b8b8r1b2>c+1e4g+4f+2d+4<b4g+1>e8r2.r8>dr8.<br8.>dr8.<gr8.g4.>c4c4f+8c4.c4<b4a8d+8d+8d+8e4r1r1r1r2d+r8.d+rd+8d+r8.d+r>d+8<d+r>g8<d+r>a8<d+r8.d+rb4.>d+4f4g+8f+4.d+4<b4g+8d8d8d8d+4r1r2r8>b8a2&a8r8a8b8b8g8r1r2.r8f+8.e8f+8.r2<e8e8r8e8r8e8r8e8g2>c+1d+4f4d+2<a+4g4d+8d+8d+8d+8r8d+8d+8r1r1r4d+8r8d+8r8d+8r8d+8r1g+4.>c+4c+4g8c+4.c+4<g+4a+8f8f8f8f8r8f8f8f8r8f8f8f8f8b4.f8f8f8f8,
>e1&e2<c2d+2e1&e2r8>f+rf+r4rf+rf+rf+r8.f+rf+r8.f+r8.f+r4rf+rf+r1r1r1r4r<f+8f+8f+8g8g4.b2r8d+8d+8d+8r8f+8f+8f+8f+8f+4f+8r1r1r1r1r2r8d+8d+8d+8r1e2e1f+4a+4g+2e4e4<a+1r1>>er8.cr8.er8.<ar8.>c4.e4f+4a8f+4.e4c4r8<f+8f+8f+8g4r1r1r1r2gr8.grg8gr8.gr8.gr8.gr8.gr8.gr1r1rf8f8f8f+4r1r1r2.r8>>c8r1r2.r8<g8.f+8g2&g8.<g8g8r8g8r8g8r8g8a+2>d+1f4a4g2d+4<a+4g8g8g8g8r8g8g8r1r1r4g8r8g8r8g8r8g8r1>c+4.f4g4a+8g+4.f4c+4r8<g8g8g8g+8r8g8g8g+8r8g8g8g8g+8r4.g8g8g8g+8,
r1r1f+2g1&g2r1r1r1r1r1r1r8a+4.r2r8f+8f+8f+8r1r1r1r1r1r2r8f+8f+8f+8r1r2g+1a+4>c+4<b2g+4r1r1r1r1r4>g4.r1r1r1r1r2.<ar8.ara8ar8.ar8.ar8.ar8.ar8.ar1r1r2ra8r1r1r1r1r1r1r2.r8>d+2g1a4>c4<a+2g4d+4<a8a8a8a8r8a8a8r1r1r4a8r8a8r8a8r8a8r1r1r1r1r1>c+8c+8c+8c+8,
r1<c1&c1&c1c8.r2.rc8.r2.rc8.r4.rf+rf+r4rf+rf+rf+r8.f+rf+r8.f+r8.f+r4rf+rf+r4rf+rf+rf+r1r<b4.r2r8b4.r2r8b4.r2r8b4.r2.>frfr4rfrfrfr8.frfr8.fr8.fr1r1r1r1r1r1r1r1r4rf+rf+r4rf+rf+rf+r8.f+rf+r8.f+r8.f+r1r1r1r1r8.d+r4.rd+r4.rd+r4.rd+r2rfrfr4rfrfrfr8.frfr8.fr8.fr1r1r1r8.<b4r4>c8r4.c8r4.c8r4.c8r4.c8r4.c8r4.c8r4.c8r1r1r1r1r1r1r1r4.d+4<g4a4>c4r8grgr4rgrgrgr8.grgr8.gr8.gr8.c+4.r2r8c+4.r2r8c+8c+8c+8c+8,
r1o3c1&c1&c1c8.r8.f+r2rc8.r8.f+r8.f+r8.f+rc8.r8.f+r>c8erer<f+8r8>erererc8erer<f+8>er<f+8>er<f+8>c8erer<f+8r8>erererc8r4<f+8r8f+8r8f+8<b4.>f8r2<b4.>f8r8f8r8f8<b4.>f8r2<b4.>f8r8f8r8f8b8>d+rd+r<f8r8>d+rd+rd+r<b8>d+rd+r<f8>d+r<f8>d+r<f8b4.f8r2b4.f8r8f8r8f8erbrer<a+r>erbrer<a+r>erbrer<a+r>erbrer<a+r>erbrer<a+r>erbrer<a+r>erbrer<a+r>erbrer<a+r>er8.>g+rf+edref+g+rf+e<er8.a+r8.er8.a+r8.>c8erer<f+8r8>erererc8erer<f+8>er<f+8>er<f+8>f+8f+8f+8g2&g8<g2r1r1r2d+r8.ar8.d+r8.ar8.d+r8.ar8.d+r8.ar8.b8>d+rd+r<f8r8>d+rd+rd+r<b8>d+rd+r<f8>d+r<f8>d+r<f8b4.f8r2b4.f8r8f8r8f8b4.f8r4f4<b4r8>l8fcrgrcrgrcrgrcrgrcrgrcrgrcrgrcrgrl16d+ra+rd+r<ar>d+ra+rd+r<ar>d+ra+rd+r<ar>d+ra+rd+r<ar>d+ra+rd+r<ar>d+ra+rd+r<ar>d+r8.<ar8.>d+r8.<ar8.>d+r8.<ar8.>d+r8.<ar8.>d+r8.<ar8.>d+r8.<ar8.>d+r8.<ar8.>d+r8.<ar8.>d+4<g4a4>c4>c+8frfr<g8r8>frfrfrc+8frfr<g8>fr<g8>fr<g8c+4.gr2rc+4.gr8.gr4rc+8c+8c+8c+8,
l1rrrrrrrrrrrrrrl16r2r8<arar4rararar8.arar8.ar8.al1rrrrrrrrrrrrrrrrl16r4rf+rf+r4rf+rf+rf+r8.f+rf+r8.f+r8.f+